svgs/sharp-light/diagram-subtask.svg

<svg xmlns="http://www.w3.org/2000/svg" viewBox="0 0 512 512"><!--! Font Awesome Pro 6.6.0 by @fontawesome - https://fontawesome.com License - https://fontawesome.com/license (Commercial License) Copyright 2024 Fonticons, Inc. --><path d="M480 64l0 128-336 0-32 0-80 0L32 64l448 0zM144 224l336 0 32 0 0-32 0-128 0-32-32 0L32 32 0 32 0 64 0 192l0 32 32 0 80 0 0 160 0 16 16 0 96 0 0 48 0 32 32 0 224 0 32 0 0-32 0-128 0-32-32 0-224 0-32 0 0 32 0 48-80 0 0-144zm336 96l0 128-224 0 0-128 224 0z"/></svg>

<svg xmlns="http://www.w3.org/2000/svg" viewBox="0 0 512 512"><!--! Font Awesome Pro 6.4.2 by @fontawesome - https://fontawesome.com License - https://fontawesome.com/license (Commercial License) Copyright 2023 Fonticons, Inc. --><path d="M480 64V192H144 112 32V64H480zM144 224H480h32V192 64 32H480 32 0V64 192v32H32h80V384v16h16 96v48 32h32H480h32V448 320 288H480 256 224v32 48H144V224zm336 96V448H256V320H480z"/></svg>
